!!!OTL: MIR IST EIN ROTH GOLDFINGERLEIN
!!!ARE: Europa, Mitteleuropa, Deutschland
!!!SCT: E0434
!!!YEM: Copyright 1995, estate of Helmut Schaffrath.
**kern
*ICvox
*Ivox
*M3/4
*k[b-]
*F:
{4f
=1
2a
4b-
=2
4cc
4ff
4dd
=3
2a
4b-
=4
2cc}
{4cc
=5
2ff
4ee
=6
4dd
4cc
4gg
=7
4ff
8ee
8cc
4dd
=8
2cc}
{4cc
=9
2ff
4cc
=10
4cc
4a
4cc
=11
4b-
8a
8f
4g
=12
2f}
{4a
=13
2cc
8a
8f
=14
4g
4f
4cc
=15
4b-
8a
8f
4g
=16
2f}
==
!!!AGN: Liebes - Lied
!!!ONB: ESAC (Essen Associative Code) Database: ERK1
!!!AMT: simple triple
!!!AIN: vox
!!!EED: Helmut Schaffrath
!!!EEV: 1.0
*-
